X:1
T:Ardenti miei sospiri
T:Giacomo Peetrino
T:Source : Canzonette a la Romana a tre voci---Venetia---Ang.Gardano---1601. Editor : André Vierendeels (21/01/17).
T:Notes : Original clefs : G2, C1, C4 Editorial accidentals above the staff
T:Ardenti miei sospiri
T:©
T:©
T:©
C:Giacomo Peetrino
Z:©
%%score [ 1 2 3 ]
L:1/8
Q:1/4=90
M:4/4
K:C
V:1 treble nm="Soprano 1" snm="S 1"
V:2 treble nm="Soprano 2" snm="S 2"
V:3 treble-8 nm="Tenor" snm="T"
V:1
"^1)" d4 f3 e | f3 e d3 A | B4 ^c4 | d8- | d4 ^c4 | z4 z ccd | e2 e2 z2 e2 | ee a3 agf | %8
w: Ar- den- ti|miei so- spi- ri|e do-|lo-|* ri,|an- da- te|pre- sto, an-|da- te pre- sto'a ri- tro-|
w: E con pie-|to- si'ac- cen- ti|le di-|re-|* te,|co- me dal|di che co-|me dal di che sua bel-|
 e2 f4 e2- | ed d4 ^c2 |[M:2/4] d4 ::[M:4/4] z2 d2 e3 f | f2 e2 f4 | z2 c2 d3 e | d2 d2 e2 g2- | %15
w: var co- le-||i,|per cui piu|sent' ogn'- hor,|per cui piu|sent' ogn' hor gli'af-|
w: ta mi- ra-||i,|vi- va- ce|fiam- * ma|vi- va- ce|fiam- ma e fo-|
 g2 f3 e e2- | e2 dc B4- | B4 !fermata!^c4 :| %18
w: * fan- ni mie-||* i.|
w: * co di- ven-|* * * tai-|* i.|
V:2
"^2)""^1)" A4 A3 A | A3 A F3 F | E4 E4 | F8 | E8 | z4 z EEF | G2 G2 z2 A2 | GG c2 c2 G2 | %8
w: Ar- den- ti|miei so- spi- ri|e do-|lo-|ri,|an- da- te|pre- sto, an-|da- te pre- sto, an-|
w: Di- te- le'an-|cor la mia pe-|no- sa|vi-|ta,|ch'o- gni pia-|* cer ch'o-|gni pia- * cer, do-|
 GG _B3 AGG | F2 F2 E4 |[M:2/4] D4 ::[M:4/4] z2 ^F2 G3 A | G2 G2 A4 | z2 A2 B3 c | A2 B2 c2 e2- | %15
w: da- te pre- sto'a ri- tro-|var co- le-|i,|per cui piu|sent' ogn' hor,|per cui piu|sent' ogn' hor gli'af-|
w: gli- a mag- * * gior|m'ad- du- *|ce,|quan- do non|veg- gi- o,|quan- do non|veg- gio la sua|
 e2 d4 c2- | c2 BA ^G2 A2- | A2 ^G2 !fermata!A4 :| %18
w: * fan- ni|_ _ _ _ mie-|* * i.|
w: _ va- ga|_ _ _ _ lu-|* * ce.|
V:3
"^3)""^1)""^4)" D4 d3 ^c | d3 A _B3 F | ^G4 A4 | D8 | A8 | z AAB c4 | c4 z AAB | c2 A2 AA c2- | %8
w: Ar- den- ti|miei so- spi- ri|e do-|lo-|ri,|an- da- te pre-|sto, an- da- te|pre- sto'an- da- te pre-|
w: Ma se cru-|del vi mo- stra'il|suo bel|vol-|to,|tor- na- te'a- *|me, tor- na- te'a|me, tor- na- te'a- me|
 cc_BA G2 G2 | A8 |[M:2/4] D4 ::[M:4/4] z2 d2 c3 A |"^b" B2 c2 F4 | z2 A2 G3 E | F2 G2 C4 | D4 E4 | %16
w: * sto'a ri- tro- var co-|le-|i,|per cui piu|sent' ogn' hor,|per cui piu|sent' ogn' hor|af- fan-|
w: _ che co'i vo- stri tor-|men-|ti,|mo- ren- do|da- * ro|mo- ren- do|da- * ro|fi- ne'a'i|
 F4 E4- | E4 !fermata!A4 :| %18
w: ni mie-|* i|
w: la- men-|* ti.|

